X:1
T: Rusty Gulley
C:Trad
R: Hornpipe (3/2)
M: 3/2
L: 1/8
K: G
Z: ABC transcription by Verge Roller
r: 16
|: "G" GABc d2 G2 B2 G2 | "D" F2 A2 A2 c2 B2 A2 | "G" GABc d2 G2 B2 G2 | "G" D2 G2 G2  B2 A2 G2 :|
|: "G" g4 f4 ef g2 | "D" f2 d2 d2 f2 e2 d2 | "D" cd e2 Bc d2 AB c2 | "G" B2 G2 G2 B2 A2  G2 :|
